X:1
T:Title
%%score { ( 1 4 ) | ( 2 3 ) }
L:1/8
M:4/4
K:C
V:1 treble nm="Grand Piano"
V:4 treble 
V:2 bass 
V:3 bass 
V:1
 z4 z2[Q:1/4=94] [CE][DF] | [EG]2 [Ec]>[Ec] [Ge]d [Ec]>[DB] | [Ec]6 [CEG]2 | %3
 [CFA]2 [CGB]>[CAc] [CGc]2 [CEG]>[G,CE] |[M:3/4] [G,B,D]6 |[M:1/4] [CE]F | %6
[M:4/4] [CEG]2 [Ec]>[Ec] [Ge]d [Ec]>[DB] | [Ec]6 [CEG]2 | [CFA]2 [CGB]>[CAc] [EGc]2 [DFB]>[DFB] | %9
[M:3/4] [CEc]6 |[M:1/4] [Ec]2 |[M:4/4] B2 A>G B2 A2 | [FA]2 [EG]>[_E^F] [=EG]3 [Ec] | %13
 B2 d>c B2 A2 | [EG]2 [Ec]>[G,CE] [G,B,D]3 [B,FG] | [EG]2 [FA]>[EG] [EG] [Ec]2 [Ec] | %16
 [Gd]2 [Ac]>[Gd] [^Ge]3 [Ge] | [Af]2 [Ge]>d dc z A |[M:7/8] G z [DFB]>[Fd] [Ec]3 |] %19
V:2
 z4 z2 [C,G,]2 | z4 G,2 z2 | [C,G,]6 C,2 | F,2 F,>F, E,2 C,>C, |[M:3/4] G,,6 |[M:1/4] z D | %6
[M:4/4] z4 G,2 z2 | [C,G,]6 C,2 | F,2 F,>F, G,2 G,,>G,, |[M:3/4] C,6 |[M:1/4] [C,G,]2 | %11
[M:4/4][K:treble] [G,D]2 [G,F]>[G,E] [G,G]2 [G,F]2 | [C,C]2 [C,C]>[C,C] [C,C]3 [C,G,] | %13
 [G,D]2 [G,F]>[G,E] [G,DG]2 [G,B,F]2 | [C,C]2 [C,G,]>C, G,,3 G,, | %15
 [C,C]2 [C,C]>[C,C] [C,C] [C,G,]2 [C,C] | [G,B,]2 [F,C]>[F,A,] [E,B,]3 [E,B,] | %17
 [D,D]2 [E,C]>[F,A,F] [F,A,F][F,A,F] z [F,CF] |[M:7/8] [G,CE] z G,,>[F,,G,] [C,G,]3 |] %19
V:3
 x8 | [C,C]2 [C,G,]>[C,G,] z F [G,,G,]>[G,,G,] | x8 | x8 |[M:3/4] x6 |[M:1/4] C,2 | %6
[M:4/4] C,2 [C,G,]>[C,G,] z F [G,,G,]>[G,,G,] | x8 | x8 |[M:3/4] x6 |[M:1/4] x2 | %11
[M:4/4][K:treble] x8 | x8 | x8 | x8 | x8 | x8 | x8 |[M:7/8] x7 |] %19
V:4
 x8 | x8 | x8 | x8 |[M:3/4] x6 |[M:1/4] G,2 |[M:4/4] x8 | x8 | x8 |[M:3/4] x6 |[M:1/4] x2 | %11
[M:4/4] x8 | x8 | x8 | x8 | x8 | x8 | x8 |[M:7/8] x7 |] %19

